res/skins/LateNight/palemoon/style/batt/ic_battery_discharging_0.svg

<svg version="1.1" viewBox="0 0 48 48" xmlns="http://www.w3.org/2000/svg">
  <path d="m4.0001 27.9999h4l-1e-4 3.8411c-3.85e-5 1.4791 0.6792 2.159 2.159 2.159h31.68c1.47 0 2.161-0.6797 2.161-2.159v-15.672c0-1.4693-0.69-2.16895-2.17-2.169l-31.6705-1e-4c-1.4798 0.01-2.15923 0.69-2.15953 2.1691v3.8309h-4z" fill="none" stroke="#ff009e" stroke-linejoin="round" stroke-width="2"/>
  <path d="m39.556 34h1.7741c1.47 0 2.6699-1.1887 2.6699-2.668v-14.664c0-1.4693-1.1899-2.668-2.6699-2.668h-1.7741v2e-3 -1e-3z" fill="#ff009e"/>
  <path d="m39.556 14.001-28.888-1e-3c-1.4798 0.01-2.6677 1.1986-2.668 2.6777v3.3223h-4v8h4v3.332c0 1.4791 1.1882 2.668 2.668 2.668h28.888z" fill="#20201f"/>
</svg>

<?xml version="1.0" encoding="UTF-8" standalone="no"?>
<svg
   xmlns:dc="http://purl.org/dc/elements/1.1/"
   xmlns:cc="http://creativecommons.org/ns#"
   xmlns:rdf="http://www.w3.org/1999/02/22-rdf-syntax-ns#"
   xmlns:svg="http://www.w3.org/2000/svg"
   xmlns="http://www.w3.org/2000/svg"
   version="1.1"
   viewBox="0 0 48 48"
   id="svg8">
  <metadata
     id="metadata14">
    <rdf:RDF>
      <cc:Work
         rdf:about="">
        <dc:format>image/svg+xml</dc:format>
        <dc:type
           rdf:resource="http://purl.org/dc/dcmitype/StillImage" />
        <dc:title></dc:title>
      </cc:Work>
    </rdf:RDF>
  </metadata>
  <defs
     id="defs12" />
  <path
     style="fill:none;stroke:#ff009e;stroke-width:2;stroke-linejoin:round;stroke-miterlimit:4;stroke-dasharray:none;stroke-opacity:1"
     d="m 4.0001,27.9999 h 4 L 8,31.841 C 7.9999615,33.3201 8.6792,34 10.159,34 h 31.68 C 43.309,34 44,33.3203 44,31.841 V 16.169 C 44,14.6997 43.31,14.000052 41.83,14 L 10.159526,13.9999 C 8.6797254,14.0099 8.0003,14.6899 8,16.169 v 3.8309 H 4 Z"
     id="path2-3" />
  <path
     style="fill:#ff009e;fill-opacity:1"
     id="path2"
     fill="#ff0000"
     d="m 39.556,34 h 1.7741 C 42.8001,34 44,32.8113 44,31.332 V 16.668 C 44,15.1987 42.8101,14 41.3301,14 H 39.556 v 0.002 -0.001 z" />
  <path
     style="stroke:none;stroke-opacity:1;stroke-width:1.8;stroke-miterlimit:4;stroke-dasharray:none;fill:#20201f;fill-opacity:1"
     id="path4"
     fill="#444443"
     d="M 39.556,14.001 10.668,14 C 9.1882,14.01 8.0003,15.1986 8,16.6777 V 20 H 4 v 8 h 4 v 3.332 C 8,32.8111 9.1882,34 10.668,34 h 28.888 z" />
</svg>
